X:5102
T:William James McAlinden
M:4/4
R:Air
L:1/8
Q:120
C:Aidan Crossey
K:A
|:AB c<A d<B c<A|B<G A2 (3Bcd e2|AB c<A d<B c<A|B<G E6|
A2 F4 GA|B<A G<F E4|AB c<A d<B c<A|B<G A6:||
|:AB c<A d<B e<c|f<g a6|ag f<d e<c d<B|c<A E6|
AB c<A d<B c<A|B<G A2 (3Bcd e2|ag f<d e<c d<B|E<G A6:||
